gallery-images/shape2.svg

<svg width="277" height="276" viewBox="0 0 277 276" fill="none" xmlns="http://www.w3.org/2000/svg">
<g clip-path="url(#clip0)">
<path fill-rule="evenodd" clip-rule="evenodd" d="M202.546 483.11L387.808 297.848L2.43483 -87.5248L-182.827 97.7372L202.546 483.11Z" stroke="#231F20" stroke-width="0.01"/>
<path d="M-90.196 6.1062L295.177 391.479" stroke="#231F20" stroke-width="0.01"/>
<path d="M-76.0541 19.2485C-76.0541 19.2485 -71.2717 23.4972 -55.8698 38.8991C-28.7516 66.0173 -45.9873 86.1642 -57.3211 101.359C-71.0755 119.802 -71.563 127.931 -79.9919 150.481C-80.7856 152.603 -81.5489 154.945 -80.5905 157.708C-79.7415 160.158 -77.7002 162.447 -75.7456 164.581C-31.2476 213.164 16.607 259.006 66.8816 301.21C73.6561 306.896 81.4152 312.94 88.4654 313.304C93.7458 313.578 97.3435 310.529 100.287 307.271C123.214 281.918 115.151 250.531 145.009 232.739C165.812 220.342 190.838 229.003 209.446 214.04C217.449 207.602 222.738 196.976 218.66 183.869C215.701 174.368 208.385 165.167 201.239 156.537C163.795 111.309 122.92 67.5826 76.9113 31.4283C66.411 23.1773 55.2959 15.1395 43.8988 11.1882C32.5554 7.25675 21.3235 8.68797 16.4048 16.4141C7.90856 29.7554 6.47699 36.6913 -0.690273 51.2366C-5.30831 60.6094 -6.85595 72.0346 0.0733224 85.5063C1.87506 89.0081 4.68458 92.2081 7.43646 95.3219C35.8891 127.523 65.0089 160.343 99.259 185.395C105.498 189.96 112.159 194.372 118.714 195.957C124.158 197.272 129.027 196.512 133.748 195.747C147.681 193.488 161.817 191.157 172.827 184.466C176.962 181.954 180.807 177.638 178.228 171.52C177.021 168.658 174.624 166.05 172.318 163.577C146.818 136.25 121.298 108.899 94.6186 82.6834C83.013 71.2782 71.0598 59.9862 57.9538 50.9078C54.1904 48.3003 49.845 45.7461 46.4648 46.3022C44.582 46.609 43.3086 47.8557 42.0984 49.0692C32.3245 58.8732 22.6271 68.691 13.4346 79.0581C-3.81095 98.5053 -11.826 111.737 -26.6439 133.377C-29.5886 137.681 -52.601 165.367 -43.3621 174.609C-28.611 189.36 18.195 140.222 27.0454 149.072C35.8957 157.923 -10.5657 213.234 3.14261 217.227C16.851 221.219 56.8555 178.882 70.131 192.158C83.4065 205.433 22.4917 246.292 37.0818 251.166C51.6701 256.038 99.7455 239.65 119.166 247.022C141.278 255.416 188.661 298.892 201.209 296.512C213.759 294.134 230.278 207.776 191.886 206.842C153.492 205.906 155.422 235.573 185.51 243.727C215.6 251.883 250.614 251.855 271.03 277.545C291.447 303.237 266.958 362.261 281.035 376.337" stroke="#231F20"/>
</g>
<defs>
<clipPath id="clip0">
<rect width="277" height="276" fill="white"/>
</clipPath>
</defs>
</svg>

<svg id="Layer_1" data-name="Layer 1" xmlns="http://www.w3.org/2000/svg" xmlns:xlink="http://www.w3.org/1999/xlink" viewBox="0 0 362.926 368.12"><defs><style>.cls-1,.cls-3{fill:none;}.cls-2{clip-path:url(#clip-path);}.cls-3{stroke:#231f20;}</style><clipPath id="clip-path" transform="translate(81.538 -8.57)"><rect class="cls-1" width="277" height="276"/></clipPath></defs><g class="cls-2"><path class="cls-3" d="M-76.054,19.249S-71.272,23.5-55.87,38.9c27.118,27.118,9.883,47.265-1.451,62.46-13.755,18.443-14.242,26.572-22.671,49.122-.794,2.122-1.557,4.464-.6,7.227.848,2.45,2.89,4.739,4.844,6.873A1513.153,1513.153,0,0,0,66.882,301.21c6.774,5.686,14.533,11.73,21.583,12.094,5.281.274,8.878-2.775,11.822-6.033,22.927-25.353,14.864-56.74,44.722-74.532,20.8-12.4,45.829-3.736,64.437-18.7,8-6.438,13.292-17.064,9.214-30.171-2.959-9.5-10.275-18.7-17.421-27.332C163.795,111.309,122.92,67.583,76.911,31.428,66.411,23.177,55.3,15.139,43.9,11.188c-11.344-3.931-22.576-2.5-27.494,5.226C7.909,29.755,6.477,36.691-.69,51.237c-4.618,9.372-6.166,20.8.763,34.269,1.8,3.5,4.612,6.7,7.363,9.816,28.453,32.2,57.573,65.021,91.823,90.073,6.239,4.565,12.9,8.977,19.455,10.562,5.444,1.315,10.313.555,15.034-.21,13.933-2.259,28.069-4.59,39.079-11.281,4.135-2.512,7.98-6.828,5.4-12.946-1.207-2.862-3.6-5.47-5.91-7.943-25.5-27.327-51.02-54.678-77.7-80.894-11.606-11.4-23.559-22.7-36.665-31.775C54.19,48.3,49.845,45.746,46.465,46.3c-1.883.307-3.156,1.554-4.367,2.767-9.773,9.8-19.471,19.622-28.663,29.989-17.246,19.447-25.261,32.679-40.079,54.319-2.945,4.3-25.957,31.99-16.718,41.232,14.751,14.751,61.557-34.387,70.407-25.537s-37.611,64.162-23.9,68.155,53.712-38.345,66.988-25.069-47.639,54.134-33.049,59.008,62.663-11.516,82.084-4.144c22.112,8.394,69.5,51.87,82.043,49.49s29.069-88.736-9.323-89.67-36.464,28.731-6.376,36.885,65.1,8.128,85.52,33.818-4.072,84.716,10.005,98.792" transform="translate(81.538 -8.57)"/></g></svg>
